X:1
T:Title
%%score { ( 1 4 ) | ( 2 3 ) }
L:1/8
M:6/4
K:Db
V:1 treble nm="Grand Piano"
V:4 treble 
V:2 bass 
V:3 bass 
V:1
 z6 z4[Q:1/4=144] [DF]2 | [FA]4 [GB]2 [FA]4 [DF]2 | [DF]4 [CE]2 [CE]4 F2 | %3
 G4 F2 [EG]2 [Ac]2 [GB]2 |[M:5/4] [FA]4 [EG]2 [DF]4 |[M:1/4] [EA]2 | %6
[M:6/4] [Dd]4 [Fd]2 [EA]4 [FB]2 | c4 c2 E4 E2 | .[A,=DF]4 [DA]2 [_DB]4 [Ec]2 | A6- [GA]6 | %10
 d2- [Fd-]2 [Fd]2 [DFc]4 [DFA]2 | B2- [GB-]2 [GB-]2 [A,CGB]6 | c2- [Gc-]2 [Gc]2 [CGB]4 G2 | A12 | %14
 [CE]4 [DF]2 [EG]4 [CGB]2 | [DFA]4 [A,EG]2 [A,DF]4 [Fd]2 | c6 z6 |[M:7/4] e6 A6 z2 |[M:6/4] d6 z6 | %19
 B12 | c6 z6 | A12 | [CE]4 [DF]2 [EG]4 [CGB]2 | [DFA]4 F2 d4 B2 | A6 e4 A2 |[M:5/4] d2- d2- d6 |] %26
V:2
 z6 z4 [D,A,]2 | [D,D]4 [D,D]2 [D,D]4 [D,A,]2 | [A,,A,]4 [A,,A,]2 [A,,A,]4 [A,D]2 | %3
 [A,CE]4 [A,_C=D]2 [A,=C]4 [A,C]2 |[M:5/4] [D,D]4 [D,A,]2 [D,A,]4 |[M:1/4] [C,A,]2 | %6
[M:6/4] [B,,B,]4 [B,,B,]2 [C,A,]4 [D,A,]2 | [E,A,E]4 [E,A,E]2 [C,A,]4 [C,A,]2 | %8
 z2 =G2 [B,,F,]2 [E,=G,]4 [E,G,]2 | z6 .C6 | z2 D2 D2 [A,,A,]6 | z2 C2 C2 A,,6 | %12
 z2 C2 C2 [A,,A,]4 [E,A,C]2 | [F,A,D]2 [F,A,]2 [E,G,]2 [D,F,]4 [D,A,D]2 | %14
 [A,,A,]4 [A,,A,]2 [A,,A,]4 A,,2 | D,4 D,2 D,4 [B,,A,]2 | [A,E]4 C2 E,4 [E,D]2 | %17
[M:7/4][K:treble] G2- G2- G2- G4- G3/2 z/ z2 |[M:6/4][K:bass] z2 D2 D2 [A,,A,]6 | z2 C2 C2 A,,6 | %20
 z2 C2 C2 [A,,A,]4 [E,A,C]2 | [F,A,D]2 [F,A,]2 [E,G,]2 [D,F,]4 [D,A,D]2 | %22
 [A,,A,]4 [A,,A,]2 [A,,A,]4 A,,2 | D,4 [D,A,D]2 [F,A,D]4[K:treble] [=G,D_F]2 | %24
 [A,DF]6 [A,CG]4 [A,CG]2 |[M:5/4][K:bass] z4 B,2 A,4 |] %26
V:3
 x12 | x12 | x12 | x12 |[M:5/4] x10 |[M:1/4] x2 |[M:6/4] x12 | x12 | .B,,6 z6 | A,,12 | %10
 [D,A,]6 z6 | [E,A,]6 z6 | [E,A,]6 z6 | x12 | x12 | x12 | E,6 z6 | %17
[M:7/4][K:treble] [A,C]2- [A,C]2- [A,C]2- [A,C]6 z2 |[M:6/4][K:bass] [D,A,]6 z6 | [E,A,]6 z6 | %20
 [E,A,]6 z6 | x12 | x12 | x10[K:treble] x2 | x12 |[M:5/4][K:bass] D,2- D,2- D,4- D,3/2 z/ |] %26
V:4
 x12 | x12 | x12 | x12 |[M:5/4] x10 |[M:1/4] x2 |[M:6/4] x12 | x12 | x12 | [A,C]6 z6 | .[DF]6 z6 | %11
 .[CG]6 z6 | .[CG]6 z6 | z2 D2 C2 D4 F2 | x12 | x12 | z4 A2 [D=GB]4 [Ge]2 |[M:7/4] x14 | %18
[M:6/4] [DF]2 F2 F2 [DFc]4 [DFA]2 | [CG]2 G2 G2 [A,CG]6 | [CG]2 G2 G2 [CGB]4 G2 | z2 D2 C2 D4 F2 | %22
 x12 | x12 | x12 |[M:5/4] [DF]4 G2 F4 |] %26

